svg/monochrome/align-left-justify.svg

<svg xmlns="http://www.w3.org/2000/svg" viewBox="0 0 24 24"><path class="uim-primary" d="M21 5H3a1 1 0 0 1 0-2h18a1 1 0 0 1 0 2zm0 4H3a1 1 0 0 1 0-2h18a1 1 0 0 1 0 2zm0 4H3a1 1 0 0 1 0-2h18a1 1 0 0 1 0 2zm0 4H3a1 1 0 0 1 0-2h18a1 1 0 0 1 0 2zm-6 4H3a1 1 0 0 1 0-2h12a1 1 0 0 1 0 2z"/></svg>

<svg xmlns="http://www.w3.org/2000/svg" viewBox="0 0 24 24"><path class="uim-primary" d="M21 5H3A1 1 0 0 1 3 3H21a1 1 0 0 1 0 2zM21 9H3A1 1 0 0 1 3 7H21a1 1 0 0 1 0 2zM21 13H3a1 1 0 0 1 0-2H21a1 1 0 0 1 0 2zM21 17H3a1 1 0 0 1 0-2H21a1 1 0 0 1 0 2zM15 21H3a1 1 0 0 1 0-2H15a1 1 0 0 1 0 2z"/></svg>
